X: 1986
T: Winifred Kreuz Polka
B: australian traditional tunes wiki
M:2/4
L:1/8
R: Polka
Q: 1/4=100
K:D
V:1 
"D"{A}FF ^EF|"A7"{F}AAE2|{A}GG FG|"D"BBA2|AA d>e|"A7"{e}dcc2|{c}dcG2|"D"{c}BAF2|
ff ^ef|"A7"aae2|gg f>g|"D"bba2|fd A>^A|"A7"{d}cB GB|"A7"A2c2|"D"d3z||
% abcbook-tune_id 6342d5be4ddb6733016e4806


% abcbook-boost 0
% abcbook-tablature 
% abcbook-transpose 
% abcbook-lastupdated 1665324492549
% abcbook-soundfonts 
% abcbook-repeats 1
% NFF Book 2018

